X: 35600
T: Sad Is My Fate
R: waltz
M: 3/4
K: Ddorian
(3AB^c|d2 cA GE|D2 C2 DE|F2- FG AB|c2 A2 A>^c|
d2 cA GE|D2 C2 DE|F2- FG E>D|D4||
A>G|A2 d2 d>e|f2 ed ce|d2 c2 A>G|F4 A>G|
A2 d2 d>e|f2 ed ^ce|(d6|d4) de|
f2 fe dc|d2 A2 AB|c2 CA GF|E2 C2 DE|
F2 FG AB|c2 A2 AG|F2- FG E>D|D4||

